packages/Snappmarket/src/UserIcon/index.svg

<svg
  width="32pt"
  height="32pt"
  viewBox="0 0 32 32"
  version="1.1"
  xmlns="http://www.w3.org/2000/svg"
>
  <g>
    <path d="M 27.3125 20.6875 C 25.601562 18.96875 23.523438 17.664062 21.230469 16.871094 C 24.574219 14.578125 26.035156 10.375 24.832031 6.503906 C 23.632812 2.632812 20.050781 -0.00390625 15.996094 -0.00390625 C 11.945312 -0.00390625 8.363281 2.632812 7.164062 6.503906 C 5.960938 10.375 7.421875 14.578125 10.765625 16.871094 C 4.320312 19.109375 0.00390625 25.179688 -0.00390625 32 L 2.496094 32 C 2.496094 24.542969 8.542969 18.5 15.996094 18.5 C 23.453125 18.5 29.496094 24.542969 29.496094 32 L 31.996094 32 C 32.007812 27.753906 30.324219 23.679688 27.3125 20.6875 Z M 15.996094 16 C 12.269531 16 9.246094 12.976562 9.246094 9.25 C 9.246094 5.523438 12.269531 2.5 15.996094 2.5 C 19.726562 2.5 22.746094 5.523438 22.746094 9.25 C 22.742188 12.976562 19.722656 15.996094 15.996094 16 Z M 15.996094 16 "/>
  </g>
</svg>

<svg viewBox="0 0 32 32" xmlns="http://www.w3.org/2000/svg">
  <path d="M27.313 20.688a15.92 15.92 0 00-6.083-3.817 9.244 9.244 0 003.602-10.367 9.247 9.247 0 00-8.836-6.508 9.246 9.246 0 00-8.832 6.508 9.244 9.244 0 003.602 10.367A16.03 16.03 0 00-.004 32h2.5c0-7.457 6.047-13.5 13.5-13.5 7.457 0 13.5 6.043 13.5 13.5h2.5a15.88 15.88 0 00-4.683-11.313zM15.995 16a6.752 6.752 0 01-6.75-6.75 6.752 6.752 0 016.75-6.75 6.75 6.75 0 110 13.5zm0 0"/>
</svg>
